X: 298
T: Del caro's Hornpipe
%R: reel, hornpipe
Z: 2014 John Chambers <jc:trillian.mit.edu>
B: Preston "Twenty four Country Dances for the Year 1796" p.192 #2
F: http://www.vwml.org/browse/browse-collections-dance-tune-books/browse-prestons1796# 2014-8-10
M: C|
L: 1/8
K: A
|:\
Acea gfef | edcB cde2 |\
Acea gfed | cBAG A4 :|
|:\
Acea (f/g/a) a2 | EGBd (c/d/e) e2 |\
Acea (f/g/a) a2 | edcB A2A,2 :|
% - - - - - - - - - - - - - - - - - - - - - - - - -
%%begintext align
%% 1st Cu: set to the 2d Lady & hands 3 round .|
%% set to the 2d Gent: & hands 3 round :|
%% lead down the middle, up again :|.
%% Allemande :|:
%%endtext
% - - - - - - - - - - - - - - - - - - - - - - - - -

%%sep 1 1 500
%%sep 1 1 500
